svgs/thin/square-info.svg

<svg xmlns="http://www.w3.org/2000/svg" viewBox="0 0 448 512"><!--! Font Awesome Pro 6.6.0 by @fontawesome - https://fontawesome.com License - https://fontawesome.com/license (Commercial License) Copyright 2024 Fonticons, Inc. --><path d="M64 48C37.5 48 16 69.5 16 96l0 320c0 26.5 21.5 48 48 48l320 0c26.5 0 48-21.5 48-48l0-320c0-26.5-21.5-48-48-48L64 48zM0 96C0 60.7 28.7 32 64 32l320 0c35.3 0 64 28.7 64 64l0 320c0 35.3-28.7 64-64 64L64 480c-35.3 0-64-28.7-64-64L0 96zm208 64a16 16 0 1 1 32 0 16 16 0 1 1 -32 0zm-16 48l32 0c4.4 0 8 3.6 8 8l0 136 40 0c4.4 0 8 3.6 8 8s-3.6 8-8 8l-96 0c-4.4 0-8-3.6-8-8s3.6-8 8-8l40 0 0-128-24 0c-4.4 0-8-3.6-8-8s3.6-8 8-8z"/></svg>

<svg xmlns="http://www.w3.org/2000/svg" viewBox="0 0 448 512"><!--! Font Awesome Pro 6.4.2 by @fontawesome - https://fontawesome.com License - https://fontawesome.com/license (Commercial License) Copyright 2023 Fonticons, Inc. --><path d="M64 48C37.5 48 16 69.5 16 96V416c0 26.5 21.5 48 48 48H384c26.5 0 48-21.5 48-48V96c0-26.5-21.5-48-48-48H64zM0 96C0 60.7 28.7 32 64 32H384c35.3 0 64 28.7 64 64V416c0 35.3-28.7 64-64 64H64c-35.3 0-64-28.7-64-64V96zm208 64a16 16 0 1 1 32 0 16 16 0 1 1 -32 0zm-16 48h32c4.4 0 8 3.6 8 8V352h40c4.4 0 8 3.6 8 8s-3.6 8-8 8H176c-4.4 0-8-3.6-8-8s3.6-8 8-8h40V224H192c-4.4 0-8-3.6-8-8s3.6-8 8-8z"/></svg>
